X:1
T:Antananarivo, 10.11.10.11 D
T:Antananarivo, 10.11.10.11 D
T:John Herman Alleman, 1893
T:Public Domain Courtesy of the Cyber Hymnal™
C:John Herman Alleman, 1893
Z:Public Domain
Z:Courtesy of the Cyber Hymnal™
%%score ( 1 2 ) ( 3 4 )
L:1/8
Q:1/4=110
M:3/4
K:Bb
V:1 treble 
V:2 treble 
V:3 bass 
V:4 bass 
V:1
 [DF]4 [DF]>[EG] | [DF]4 [B,D]>[CE] | [DF]2 [EG]2 [DF]2 | [DB]4 [FB]2 | [GB]4 [FA]>[EG] | %5
 [DF]4 [DF]>[DF] | [FB]2 [Fc]2 [Fd]2 | [Fc]4 ^c2 | [Fd]4 [Fd]>[=E^c] | [Fd]4 [Fd]>[FB] | %10
 [GB]2 [FA]2 [EG]2 | F4 B2 [Fc]2 | [Fd]4 [Ff]>[_Ad] | [Ge]4 G>[Gc] | (B2 d2) [Ec]2 | [DB]4 z2 | %16
 [DB]4 [DB]>[DB] | [CA]4 [CA]>[CA] | [B,G]2 [B,A]2 [B,B]2 | [B,F]4 [B,F]2 | [EA]4 [EA]>[EA] | %21
 [DB]4 [DB]>[FB] | [Fc]2 [Fe]2 [Fd]2 | [Fc]4 [EF]2 | [DF]4 [FB]>[Fc] | [Fd]4 [Fc]>[FB] | %26
 [Gc]2 [GB]2 [EG]2 | F4 [Fc]2 | [Fd]4 [Ff]>[_Ad] | [Ge]4 G>[Gc] | [FB]2 [Fd]2 [Ec]2 | [DB]4 z2 |] %32
V:2
 x6 | x6 | x6 | x6 | x6 | x6 | x6 | x6 | x6 | x6 | x6 | D2 x6 | x6 | x4 G3/2 x/ | F4 x2 | x6 | x6 | %17
 x6 | x6 | x6 | x6 | x6 | x6 | x6 | x6 | x6 | x6 | (D2 B2) x2 | x6 | x4 G3/2 x/ | x6 | x6 |] %32
V:3
 [B,,B,]4 [B,,B,]>[B,,B,] | [B,,B,]4 [B,,F,]>[B,,F,] | [B,,B,]2 [B,,B,]2 [B,,B,]2 | %3
 [B,,F,]4 [D,B,]2 | [E,B,]4 [E,B,]>[E,B,] | [B,,B,]4 [B,,B,]>[B,,B,] | [D,B,]2 [C,A,]2 [B,,B,]2 | %7
 [F,A,]4 z2 | B,4 B,>B, | B,4 [D,B,]>[D,B,] | [E,B,]2 [E,B,]2 [E,B,]2 | B,4 [F,A,]2 x2 | %12
 B,4 [B,D]>B, | [E,B,]4 [E,B,]>[E,E] | (D2 B,2) [F,A,]2 | [B,,F,B,]4 z2 | %16
 [B,,F,]4 [B,,F,]>[B,,F,] | [D,^F,]4 [D,F,]>[D,F,] | E,2 [E,F,]2 [E,G,]2 | [D,B,]4 [D,B,]2 | %20
 [C,F,]4 [C,F,]>[C,F,] | [B,,F,]4 [B,,F,]>[D,B,] | [F,A,]2 [F,C]2 [F,B,]2 | [F,A,]4 [F,A,]2 | %24
 [B,,B,]4 [D,B,]>[F,A,] | B,4 [D,B,]>[D,B,] | [E,B,]2 [E,B,]2 [E,B,]2 | B,4 [F,A,]2 | %28
 B,4 [B,D]>B, | [E,B,]4 [E,B,]>[E,E] | [F,D]2 [F,B,]2 [F,A,]2 | [B,,F,B,]4 z2 |] %32
V:4
 x6 | x6 | x6 | x6 | x6 | x6 | x6 | x6 | B,4 B,>B, | B,4 x2 | x6 | (B,,2 D,2) x4 | B,4 B,/ x3/2 | %13
 x6 | F,4 x2 | x6 | x6 | x6 | E,2 x4 | x6 | x6 | x6 | x6 | x6 | x6 | B,4 x2 | x6 | (B,,2 D,2) x2 | %28
 B,4 B,/ x3/2 | x6 | x6 | x6 |] %32

